img/benefit-icons/img7.svg

<svg width="35" height="35" viewBox="0 0 35 35" fill="none" xmlns="http://www.w3.org/2000/svg">
<g clip-path="url(#clip0_198_18569)">
<path d="M33.8667 31.7043V12.3333C33.8667 6.70003 29.3 2.13334 23.6667 2.13334C18.0334 2.13334 13.4667 6.70003 13.4667 12.3333V13.5709C12.7899 13.8102 12.3364 14.4488 12.3334 15.1667V20.8333C12.3364 21.5512 12.7899 22.1898 13.4667 22.4291V23.6667C13.4667 24.2926 12.9593 24.8 12.3334 24.8C11.7075 24.8 11.2001 24.2926 11.2001 23.6667V4.29574C11.9801 4.02099 12.4483 3.22369 12.3081 2.40864C12.168 1.59358 11.4604 0.998436 10.6334 1H2.70006C1.87305 0.998436 1.16548 1.59358 1.02534 2.40864C0.885204 3.22369 1.35335 4.02099 2.1334 4.29574V23.6667C2.1334 29.3 6.70009 33.8667 12.3334 33.8667C17.9667 33.8667 22.5334 29.3 22.5334 23.6667V22.4291C23.2102 22.1898 23.6638 21.5512 23.6667 20.8333V15.1667C23.6638 14.4488 23.2102 13.8102 22.5334 13.5709V12.3333C22.5334 11.7074 23.0408 11.2 23.6667 11.2C24.2927 11.2 24.8001 11.7074 24.8001 12.3333V31.7043C24.02 31.979 23.5519 32.7763 23.692 33.5914C23.8322 34.4064 24.5397 35.0016 25.3667 35H33.3001C34.1271 35.0016 34.8346 34.4064 34.9748 33.5914C35.1149 32.7763 34.6468 31.979 33.8667 31.7043ZM2.70006 2.13334H10.6334C10.9464 2.13334 11.2001 2.38704 11.2001 2.7C11.2001 3.01296 10.9464 3.26667 10.6334 3.26667H2.70006C2.3871 3.26667 2.1334 3.01296 2.1334 2.7C2.1334 2.38704 2.3871 2.13334 2.70006 2.13334ZM12.3334 32.7333C7.32848 32.7274 3.27266 28.6716 3.26673 23.6667V4.4H10.0667V23.6667C10.0667 24.9185 11.0816 25.9333 12.3334 25.9333C13.5852 25.9333 14.6001 24.9185 14.6001 23.6667V22.5333H21.4001V23.6667C21.3941 28.6716 17.3383 32.7274 12.3334 32.7333ZM22.5334 20.8333C22.5334 21.1463 22.2797 21.4 21.9667 21.4H14.0334C13.7204 21.4 13.4667 21.1463 13.4667 20.8333V15.1667C13.4667 14.8537 13.7204 14.6 14.0334 14.6H21.9667C22.2797 14.6 22.5334 14.8537 22.5334 15.1667V20.8333ZM23.6667 10.0667C22.4149 10.0667 21.4001 11.0815 21.4001 12.3333V13.4667H14.6001V12.3333C14.6001 7.32595 18.6593 3.26667 23.6667 3.26667C28.6741 3.26667 32.7334 7.32595 32.7334 12.3333V31.6H25.9334V12.3333C25.9334 11.0815 24.9186 10.0667 23.6667 10.0667ZM33.3001 33.8667H25.3667C25.0538 33.8667 24.8001 33.613 24.8001 33.3C24.8001 32.987 25.0538 32.7333 25.3667 32.7333H33.3001C33.613 32.7333 33.8667 32.987 33.8667 33.3C33.8667 33.613 33.613 33.8667 33.3001 33.8667Z" fill="#0383FD"/>
<path d="M4.96666 5.53333C4.6537 5.53333 4.39999 5.78703 4.39999 6.09999V7.23333C4.39999 7.54629 4.6537 7.79999 4.96666 7.79999C5.27962 7.79999 5.53333 7.54629 5.53333 7.23333V6.09999C5.53333 5.78703 5.27962 5.53333 4.96666 5.53333Z" fill="#0383FD"/>
<path d="M4.96666 8.93335C4.6537 8.93335 4.39999 9.18705 4.39999 9.50002V17.4334C4.39999 17.7463 4.6537 18 4.96666 18C5.27962 18 5.53333 17.7463 5.53333 17.4334V9.50002C5.53333 9.18705 5.27962 8.93335 4.96666 8.93335Z" fill="#0383FD"/>
</g>
<defs>
<clipPath id="clip0_198_18569">
<rect width="35" height="35" fill="white"/>
</clipPath>
</defs>
</svg>

<svg width="35" height="35" fill="none" xmlns="http://www.w3.org/2000/svg"><g clip-path="url(#clip0_198_18569)" fill="#0383FD"><path d="M33.867 31.704v-19.37c0-5.634-4.567-10.2-10.2-10.2-5.634 0-10.2 4.566-10.2 10.2v1.237a1.7 1.7 0 00-1.134 1.596v5.666a1.7 1.7 0 001.134 1.596v1.238a1.133 1.133 0 01-2.267 0V4.296A1.696 1.696 0 0010.633 1H2.7a1.696 1.696 0 00-.567 3.296v19.37c0 5.634 4.567 10.2 10.2 10.2 5.634 0 10.2-4.566 10.2-10.2V22.43a1.7 1.7 0 001.134-1.596v-5.666a1.7 1.7 0 00-1.134-1.596v-1.238a1.133 1.133 0 012.267 0v19.371A1.696 1.696 0 0025.367 35H33.3a1.696 1.696 0 00.567-3.296zM2.7 2.134h7.933a.567.567 0 110 1.133H2.7a.567.567 0 010-1.134zm9.633 30.6a9.077 9.077 0 01-9.066-9.067V4.4h6.8v19.267a2.267 2.267 0 004.533 0v-1.134h6.8v1.134a9.077 9.077 0 01-9.067 9.066zm10.2-11.9a.567.567 0 01-.566.566h-7.934a.567.567 0 01-.566-.567v-5.666c0-.313.253-.567.566-.567h7.934c.313 0 .566.254.566.567v5.666zm1.134-10.767a2.267 2.267 0 00-2.267 2.266v1.134h-6.8v-1.134a9.067 9.067 0 1118.133 0V31.6h-6.8V12.333a2.267 2.267 0 00-2.266-2.266zm9.633 23.8h-7.933a.567.567 0 010-1.134H33.3a.567.567 0 010 1.134z"/><path d="M4.967 5.533A.567.567 0 004.4 6.1v1.133a.567.567 0 001.133 0V6.1a.567.567 0 00-.566-.567zm0 3.4A.567.567 0 004.4 9.5v7.933a.567.567 0 001.133 0V9.5a.567.567 0 00-.566-.567z"/></g><defs><clipPath id="clip0_198_18569"><path fill="#fff" d="M0 0h35v35H0z"/></clipPath></defs></svg>
